icons/code-review-16.svg

<svg width="16" height="16" viewBox="0 0 16 16" xmlns="http://www.w3.org/2000/svg">
  <path fill-rule="evenodd" clip-rule="evenodd" d="M1.5 2.75C1.5 2.61193 1.61193 2.5 1.75 2.5H14.25C14.3881 2.5 14.5 2.61193 14.5 2.75V11.25C14.5 11.3881 14.3881 11.5 14.25 11.5H7.75C7.55109 11.5 7.36032 11.579 7.21967 11.7197L4.5 14.4393V12.25C4.5 11.8358 4.16421 11.5 3.75 11.5H1.75C1.61193 11.5 1.5 11.3881 1.5 11.25V2.75ZM1.75 1C0.783501 1 0 1.7835 0 2.75V11.25C0 12.2165 0.783502 13 1.75 13H3V14.5429C3 15.3476 3.65237 16 4.45711 16C4.84356 16 5.21418 15.8465 5.48744 15.5732L8.06066 13H14.25C15.2165 13 16 12.2165 16 11.25V2.75C16 1.7835 15.2165 1 14.25 1H1.75ZM6.78033 4.46967C7.07322 4.76256 7.07322 5.23744 6.78033 5.53033L5.31066 7L6.78033 8.46967C7.07322 8.76256 7.07322 9.23744 6.78033 9.53033C6.48744 9.82322 6.01256 9.82322 5.71967 9.53033L3.71967 7.53033C3.42678 7.23744 3.42678 6.76256 3.71967 6.46967L5.71967 4.46967C6.01256 4.17678 6.48744 4.17678 6.78033 4.46967ZM9.21967 4.46967C8.92678 4.76256 8.92678 5.23744 9.21967 5.53033L10.6893 7L9.21967 8.46967C8.92678 8.76256 8.92678 9.23744 9.21967 9.53033C9.51256 9.82322 9.98744 9.82322 10.2803 9.53033L12.2803 7.53033C12.5732 7.23744 12.5732 6.76256 12.2803 6.46967L10.2803 4.46967C9.98744 4.17678 9.51256 4.17678 9.21967 4.46967Z"/>
</svg>

<svg xmlns="http://www.w3.org/2000/svg" width="16" height="16" viewBox="0 0 16 16"><path fill-rule="evenodd" d="M1.5 2.75a.25.25 0 01.25-.25h12.5a.25.25 0 01.25.25v8.5a.25.25 0 01-.25.25h-6.5a.75.75 0 00-.53.22L4.5 14.44v-2.19a.75.75 0 00-.75-.75h-2a.25.25 0 01-.25-.25v-8.5zM1.75 1A1.75 1.75 0 000 2.75v8.5C0 12.216.784 13 1.75 13H3v1.543a1.457 1.457 0 002.487 1.03L8.061 13h6.189A1.75 1.75 0 0016 11.25v-8.5A1.75 1.75 0 0014.25 1H1.75zm5.03 3.47a.75.75 0 010 1.06L5.31 7l1.47 1.47a.75.75 0 01-1.06 1.06l-2-2a.75.75 0 010-1.06l2-2a.75.75 0 011.06 0zm2.44 0a.75.75 0 000 1.06L10.69 7 9.22 8.47a.75.75 0 001.06 1.06l2-2a.75.75 0 000-1.06l-2-2a.75.75 0 00-1.06 0z"/></svg>
